X: 3131
T: GLENTROMIE
Q: "Strathspey."
R: Strathspey.
%R: strathspey
B: James Kerr "Merry Melodies" v.3 p.16 #131
Z: 2016 John Chambers <jc:trillian.mit.edu>
M: C
L: 1/16
K: C
(uef) |\
gc3e3d c4-c2(ef) | gc3 a3c Bd3 d2(ef) |\
gc3e3d c3BA3G | (AB)cA (Bc)dB Gc3 c2 ::\
(uGF) |\
Ec3Gc3 Ec3Gc3 |
ve3vd (cd)ec dD3 D2(GF) |\
[1 Ec3Gc3 Eg3e3c | Af3 d3B ec2 c2 :|\
[2 E3Gc3E F3Ad3f | (ef)ga (gf)ed ec3 c2 |]

%%sep 1 1 500
%%sep 1 1 500

